static/img/kroki/42655562b2fb497845d56b90381ff5c5.svg

<?xml version="1.0" encoding="us-ascii" standalone="no"?><svg xmlns="http://www.w3.org/2000/svg" xmlns:xlink="http://www.w3.org/1999/xlink" contentStyleType="text/css" height="977px" preserveAspectRatio="none" style="width:454px;height:977px;" version="1.1" viewBox="0 0 454 977" width="454px" zoomAndPan="magnify"><defs/><g><!--class aws_cloud_formation_stack_instance_summary--><g id="elem_aws_cloud_formation_stack_instance_summary"><rect codeLine="22" fill="#3D176E" height="337.0547" id="aws_cloud_formation_stack_instance_summary" rx="2.5" ry="2.5" style="stroke:#000D19;stroke-width:0.5;" width="440" x="7" y="633.85"/><ellipse cx="22" cy="653.7445" fill="#ADD1B2" rx="11" ry="11" style="stroke:#181818;stroke-width:1.0;"/><path d="M24.9688,659.3852 Q24.3906,659.682 23.75,659.8227 Q23.1094,659.9789 22.4063,659.9789 Q19.9063,659.9789 18.5781,658.3383 Q17.2656,656.682 17.2656,653.557 Q17.2656,650.432 18.5781,648.7758 Q19.9063,647.1195 22.4063,647.1195 Q23.1094,647.1195 23.75,647.2758 Q24.4063,647.432 24.9688,647.7289 L24.9688,650.4477 Q24.3438,649.8695 23.75,649.6039 Q23.1563,649.3227 22.5313,649.3227 Q21.1875,649.3227 20.5,650.4008 Q19.8125,651.4633 19.8125,653.557 Q19.8125,655.6508 20.5,656.7289 Q21.1875,657.7914 22.5313,657.7914 Q23.1563,657.7914 23.75,657.5258 Q24.3438,657.2445 24.9688,656.6664 L24.9688,659.3852 Z " fill="#000000"/><text fill="#D9B8FF" font-family="Helvetica" font-size="17" lengthAdjust="spacing" textLength="398" x="41" y="659.6298">aws_cloud_formation_stack_instance_summary</text><line style="stroke:#000D19;stroke-width:0.5;" x1="8" x2="446" y1="673.6391" y2="673.6391"/><text fill="#D9B8FF" font-family="sans-serif" font-size="14" font-weight="bold" lengthAdjust="spacing" textLength="186" x="18" y="695.6342">stack_instance_account</text><text fill="#D9B8FF" font-family="sans-serif" font-size="14" lengthAdjust="spacing" textLength="48" x="204" y="695.6342">: string</text><text fill="#D9B8FF" font-family="sans-serif" font-size="14" font-weight="bold" lengthAdjust="spacing" textLength="212" x="18" y="721.9311">stack_instance_drift_status</text><text fill="#D9B8FF" font-family="sans-serif" font-size="14" lengthAdjust="spacing" textLength="48" x="230" y="721.9311">: string</text><text fill="#D9B8FF" font-family="sans-serif" font-size="14" font-weight="bold" lengthAdjust="spacing" textLength="334" x="18" y="748.2279">stack_instance_last_drift_check_timestamp</text><text fill="#D9B8FF" font-family="sans-serif" font-size="14" lengthAdjust="spacing" textLength="70" x="352" y="748.2279">: datetime</text><text fill="#D9B8FF" font-family="sans-serif" font-size="14" font-weight="bold" lengthAdjust="spacing" textLength="255" x="18" y="774.5248">stack_instance_last_operation_id</text><text fill="#D9B8FF" font-family="sans-serif" font-size="14" lengthAdjust="spacing" textLength="48" x="273" y="774.5248">: string</text><text fill="#D9B8FF" font-family="sans-serif" font-size="14" font-weight="bold" lengthAdjust="spacing" textLength="292" x="18" y="800.8217">stack_instance_organizational_unit_id</text><text fill="#D9B8FF" font-family="sans-serif" font-size="14" lengthAdjust="spacing" textLength="48" x="310" y="800.8217">: string</text><text fill="#D9B8FF" font-family="sans-serif" font-size="14" font-weight="bold" lengthAdjust="spacing" textLength="174" x="18" y="827.1186">stack_instance_region</text><text fill="#D9B8FF" font-family="sans-serif" font-size="14" lengthAdjust="spacing" textLength="48" x="192" y="827.1186">: string</text><text fill="#D9B8FF" font-family="sans-serif" font-size="14" font-weight="bold" lengthAdjust="spacing" textLength="186" x="18" y="853.4154">stack_instance_stack_id</text><text fill="#D9B8FF" font-family="sans-serif" font-size="14" lengthAdjust="spacing" textLength="48" x="204" y="853.4154">: string</text><text fill="#D9B8FF" font-family="sans-serif" font-size="14" font-weight="bold" lengthAdjust="spacing" textLength="295" x="18" y="879.7123">stack_instance_stack_instance_status</text><text fill="#D9B8FF" font-family="sans-serif" font-size="14" lengthAdjust="spacing" textLength="48" x="313" y="879.7123">: string</text><text fill="#D9B8FF" font-family="sans-serif" font-size="14" font-weight="bold" lengthAdjust="spacing" textLength="218" x="18" y="906.0092">stack_instance_stack_set_id</text><text fill="#D9B8FF" font-family="sans-serif" font-size="14" lengthAdjust="spacing" textLength="48" x="236" y="906.0092">: string</text><text fill="#D9B8FF" font-family="sans-serif" font-size="14" font-weight="bold" lengthAdjust="spacing" textLength="172" x="18" y="932.3061">stack_instance_status</text><text fill="#D9B8FF" font-family="sans-serif" font-size="14" lengthAdjust="spacing" textLength="48" x="190" y="932.3061">: string</text><text fill="#D9B8FF" font-family="sans-serif" font-size="14" font-weight="bold" lengthAdjust="spacing" textLength="234" x="18" y="958.6029">stack_instance_status_reason</text><text fill="#D9B8FF" font-family="sans-serif" font-size="14" lengthAdjust="spacing" textLength="48" x="252" y="958.6029">: string</text></g><!--class aws_resource--><g id="elem_aws_resource"><rect codeLine="35" fill="#3D176E" height="74.0859" id="aws_resource" rx="2.5" ry="2.5" style="stroke:#000D19;stroke-width:0.5;" width="155" x="149.5" y="438.76"/><ellipse cx="164.5" cy="458.6545" fill="#ADD1B2" rx="11" ry="11" style="stroke:#181818;stroke-width:1.0;"/><path d="M167.4688,464.2952 Q166.8906,464.592 166.25,464.7327 Q165.6094,464.8889 164.9063,464.8889 Q162.4063,464.8889 161.0781,463.2483 Q159.7656,461.592 159.7656,458.467 Q159.7656,455.342 161.0781,453.6858 Q162.4063,452.0295 164.9063,452.0295 Q165.6094,452.0295 166.25,452.1858 Q166.9063,452.342 167.4688,452.6389 L167.4688,455.3577 Q166.8438,454.7795 166.25,454.5139 Q165.6563,454.2327 165.0313,454.2327 Q163.6875,454.2327 163,455.3108 Q162.3125,456.3733 162.3125,458.467 Q162.3125,460.5608 163,461.6389 Q163.6875,462.7014 165.0313,462.7014 Q165.6563,462.7014 166.25,462.4358 Q166.8438,462.1545 167.4688,461.5764 L167.4688,464.2952 Z " fill="#000000"/><text fill="#D9B8FF" font-family="Helvetica" font-size="17" lengthAdjust="spacing" textLength="113" x="183.5" y="464.5398">aws_resource</text><line style="stroke:#000D19;stroke-width:0.5;" x1="150.5" x2="303.5" y1="478.5491" y2="478.5491"/><text fill="#D9B8FF" font-family="sans-serif" font-size="14" font-weight="bold" lengthAdjust="spacing" textLength="26" x="160.5" y="500.5442">arn</text><text fill="#D9B8FF" font-family="sans-serif" font-size="14" lengthAdjust="spacing" textLength="48" x="186.5" y="500.5442">: string</text></g><!--class resource--><g id="elem_resource"><rect codeLine="38" fill="#3D176E" height="310.7578" id="resource" rx="2.5" ry="2.5" style="stroke:#000D19;stroke-width:0.5;" width="227" x="113.5" y="7"/><ellipse cx="182.25" cy="26.8945" fill="#ADD1B2" rx="11" ry="11" style="stroke:#181818;stroke-width:1.0;"/><path d="M185.2188,32.5352 Q184.6406,32.832 184,32.9727 Q183.3594,33.1289 182.6563,33.1289 Q180.1563,33.1289 178.8281,31.4883 Q177.5156,29.832 177.5156,26.707 Q177.5156,23.582 178.8281,21.9258 Q180.1563,20.2695 182.6563,20.2695 Q183.3594,20.2695 184,20.4258 Q184.6563,20.582 185.2188,20.8789 L185.2188,23.5977 Q184.5938,23.0195 184,22.7539 Q183.4063,22.4727 182.7813,22.4727 Q181.4375,22.4727 180.75,23.5508 Q180.0625,24.6133 180.0625,26.707 Q180.0625,28.8008 180.75,29.8789 Q181.4375,30.9414 182.7813,30.9414 Q183.4063,30.9414 184,30.6758 Q184.5938,30.3945 185.2188,29.8164 L185.2188,32.5352 Z " fill="#000000"/><text fill="#D9B8FF" font-family="Helvetica" font-size="17" lengthAdjust="spacing" textLength="71" x="207.75" y="32.7798">resource</text><line style="stroke:#000D19;stroke-width:0.5;" x1="114.5" x2="339.5" y1="46.7891" y2="46.7891"/><text fill="#D9B8FF" font-family="sans-serif" font-size="14" font-weight="bold" lengthAdjust="spacing" textLength="29" x="124.5" y="68.7842">age</text><text fill="#D9B8FF" font-family="sans-serif" font-size="14" lengthAdjust="spacing" textLength="66" x="153.5" y="68.7842">: duration</text><text fill="#D9B8FF" font-family="sans-serif" font-size="14" font-weight="bold" lengthAdjust="spacing" textLength="43" x="124.5" y="95.0811">atime</text><text fill="#D9B8FF" font-family="sans-serif" font-size="14" lengthAdjust="spacing" textLength="70" x="167.5" y="95.0811">: datetime</text><text fill="#D9B8FF" font-family="sans-serif" font-size="14" font-weight="bold" lengthAdjust="spacing" textLength="43" x="124.5" y="121.3779">ctime</text><text fill="#D9B8FF" font-family="sans-serif" font-size="14" lengthAdjust="spacing" textLength="70" x="167.5" y="121.3779">: datetime</text><text fill="#D9B8FF" font-family="sans-serif" font-size="14" font-weight="bold" lengthAdjust="spacing" textLength="14" x="124.5" y="147.6748">id</text><text fill="#D9B8FF" font-family="sans-serif" font-size="14" lengthAdjust="spacing" textLength="48" x="138.5" y="147.6748">: string</text><text fill="#D9B8FF" font-family="sans-serif" font-size="14" font-weight="bold" lengthAdjust="spacing" textLength="33" x="124.5" y="173.9717">kind</text><text fill="#D9B8FF" font-family="sans-serif" font-size="14" lengthAdjust="spacing" textLength="48" x="157.5" y="173.9717">: string</text><text fill="#D9B8FF" font-family="sans-serif" font-size="14" font-weight="bold" lengthAdjust="spacing" textLength="90" x="124.5" y="200.2686">last_access</text><text fill="#D9B8FF" font-family="sans-serif" font-size="14" lengthAdjust="spacing" textLength="66" x="214.5" y="200.2686">: duration</text><text fill="#D9B8FF" font-family="sans-serif" font-size="14" font-weight="bold" lengthAdjust="spacing" textLength="90" x="124.5" y="226.5654">last_update</text><text fill="#D9B8FF" font-family="sans-serif" font-size="14" lengthAdjust="spacing" textLength="66" x="214.5" y="226.5654">: duration</text><text fill="#D9B8FF" font-family="sans-serif" font-size="14" font-weight="bold" lengthAdjust="spacing" textLength="48" x="124.5" y="252.8623">mtime</text><text fill="#D9B8FF" font-family="sans-serif" font-size="14" lengthAdjust="spacing" textLength="70" x="172.5" y="252.8623">: datetime</text><text fill="#D9B8FF" font-family="sans-serif" font-size="14" font-weight="bold" lengthAdjust="spacing" textLength="43" x="124.5" y="279.1592">name</text><text fill="#D9B8FF" font-family="sans-serif" font-size="14" lengthAdjust="spacing" textLength="48" x="167.5" y="279.1592">: string</text><text fill="#D9B8FF" font-family="sans-serif" font-size="14" font-weight="bold" lengthAdjust="spacing" textLength="34" x="124.5" y="305.4561">tags</text><text fill="#D9B8FF" font-family="sans-serif" font-size="14" lengthAdjust="spacing" textLength="171" x="158.5" y="305.4561">: dictionary[string, string]</text></g><!--reverse link aws_resource to aws_cloud_formation_stack_instance_summary--><g id="link_aws_resource_aws_cloud_formation_stack_instance_summary"><path codeLine="50" d="M227,531.09 C227,561.11 227,588.08 227,633.62 " fill="none" id="aws_resource-backto-aws_cloud_formation_stack_instance_summary" style="stroke:#FFAF37;stroke-width:2.0;"/><polygon fill="none" points="227,513.09,221,531.09,233,531.09,227,513.09" style="stroke:#FFAF37;stroke-width:2.0;"/></g><!--reverse link resource to aws_resource--><g id="link_resource_aws_resource"><path codeLine="51" d="M227,336.18 C227,381.21 227,408.35 227,438.52 " fill="none" id="resource-backto-aws_resource" style="stroke:#FFAF37;stroke-width:2.0;"/><polygon fill="none" points="227,318.18,221,336.18,233,336.18,227,318.18" style="stroke:#FFAF37;stroke-width:2.0;"/></g><!--SRC=[bPHTQzim58Rlyoi4lGiD92jRch6RBZ2scpBQtOrXJgHZHyIIpD5nGzhjlq-sqsBBZhrT1PttqNk-vEorGe6cu9CmQ7P8VkOFsXP0OCGTaJjkNUv8NAKff3VhMFpYB4y2zs1GVCNy2LbBY8aVUoqF5hqNxrhIPv27Z5nfLMFF1DO72Istg6qEtjynazwLZArYr6PtcwOn6PjUtQZL-WFsC4SAwOmibqkrsiJ8PAhHlj-8H_sCOjKUshrZx9NPIr5JerLMHAl8NgEl-iKQluDIscRYVIlsqDH45gaJVzo3SiUAJY7txJIUaT3ngS1jholStAfqFGX_kmJBQd82ZZwHkIjLaZeomDhPn7EuacWRVgt4n9V609t4osm-ZoIGCXZpVFunPAHGTHzHf5EkBBdqOroeXi-mt6DGM1iCcYcgMmeOgy25Uwv0QchNQYo9emoiVgvHo9FIQfwuGPW5Temu7zK_CAtZn3IQeqUUDfvs2aJe0todZp-j1q3eNKaIwnK33M5T9CDwAMKpz2fIBITQb1o8HTs4zzeDrDiChohyXqKPQgKiAgz8CGDvB3IXDsE6h77Kibu-dNusslMP-HLQxSpYq-_5Ol4VtyTiuEPhw2y0]--></g></svg>

<svg xmlns="http://www.w3.org/2000/svg" width="454" height="977" viewBox="0 0 454 977"><rect width="440" height="337.055" x="7" y="633.85" fill="#3D176E" rx="2.5" ry="2.5" style="stroke:#000d19;stroke-width:.5"/><circle cx="22" cy="653.745" r="11" fill="#ADD1B2" style="stroke:#181818;stroke-width:1"/><path d="M24.969 659.385q-.578.297-1.219.438-.64.156-1.344.156-2.5 0-3.828-1.64-1.312-1.657-1.312-4.782t1.312-4.781q1.328-1.656 3.828-1.656.703 0 1.344.156.656.156 1.219.453v2.719q-.625-.578-1.219-.844-.594-.281-1.219-.281-1.343 0-2.031 1.078-.687 1.062-.687 3.156t.687 3.172q.688 1.062 2.031 1.062.625 0 1.219-.265.594-.281 1.219-.86z"/><text x="41" y="659.63" fill="#D9B8FF" font-family="Helvetica" font-size="17" textLength="398">aws_cloud_formation_stack_instance_summary</text><path d="M8 673.639h438" style="stroke:#000d19;stroke-width:.5"/><text x="18" y="695.634" fill="#D9B8FF" font-family="sans-serif" font-size="14" font-weight="bold" textLength="186">stack_instance_account</text><text x="204" y="695.634" fill="#D9B8FF" font-family="sans-serif" font-size="14" textLength="48">: string</text><text x="18" y="721.931" fill="#D9B8FF" font-family="sans-serif" font-size="14" font-weight="bold" textLength="212">stack_instance_drift_status</text><text x="230" y="721.931" fill="#D9B8FF" font-family="sans-serif" font-size="14" textLength="48">: string</text><text x="18" y="748.228" fill="#D9B8FF" font-family="sans-serif" font-size="14" font-weight="bold" textLength="334">stack_instance_last_drift_check_timestamp</text><text x="352" y="748.228" fill="#D9B8FF" font-family="sans-serif" font-size="14" textLength="70">: datetime</text><text x="18" y="774.525" fill="#D9B8FF" font-family="sans-serif" font-size="14" font-weight="bold" textLength="255">stack_instance_last_operation_id</text><text x="273" y="774.525" fill="#D9B8FF" font-family="sans-serif" font-size="14" textLength="48">: string</text><text x="18" y="800.822" fill="#D9B8FF" font-family="sans-serif" font-size="14" font-weight="bold" textLength="292">stack_instance_organizational_unit_id</text><text x="310" y="800.822" fill="#D9B8FF" font-family="sans-serif" font-size="14" textLength="48">: string</text><text x="18" y="827.119" fill="#D9B8FF" font-family="sans-serif" font-size="14" font-weight="bold" textLength="174">stack_instance_region</text><text x="192" y="827.119" fill="#D9B8FF" font-family="sans-serif" font-size="14" textLength="48">: string</text><text x="18" y="853.415" fill="#D9B8FF" font-family="sans-serif" font-size="14" font-weight="bold" textLength="186">stack_instance_stack_id</text><text x="204" y="853.415" fill="#D9B8FF" font-family="sans-serif" font-size="14" textLength="48">: string</text><text x="18" y="879.712" fill="#D9B8FF" font-family="sans-serif" font-size="14" font-weight="bold" textLength="295">stack_instance_stack_instance_status</text><text x="313" y="879.712" fill="#D9B8FF" font-family="sans-serif" font-size="14" textLength="48">: string</text><text x="18" y="906.009" fill="#D9B8FF" font-family="sans-serif" font-size="14" font-weight="bold" textLength="218">stack_instance_stack_set_id</text><text x="236" y="906.009" fill="#D9B8FF" font-family="sans-serif" font-size="14" textLength="48">: string</text><text x="18" y="932.306" fill="#D9B8FF" font-family="sans-serif" font-size="14" font-weight="bold" textLength="172">stack_instance_status</text><text x="190" y="932.306" fill="#D9B8FF" font-family="sans-serif" font-size="14" textLength="48">: string</text><text x="18" y="958.603" fill="#D9B8FF" font-family="sans-serif" font-size="14" font-weight="bold" textLength="234">stack_instance_status_reason</text><text x="252" y="958.603" fill="#D9B8FF" font-family="sans-serif" font-size="14" textLength="48">: string</text><rect width="155" height="74.086" x="149.5" y="438.76" fill="#3D176E" rx="2.5" ry="2.5" style="stroke:#000d19;stroke-width:.5"/><circle cx="164.5" cy="458.654" r="11" fill="#ADD1B2" style="stroke:#181818;stroke-width:1"/><path d="M167.469 464.295q-.578.297-1.219.438-.64.156-1.344.156-2.5 0-3.828-1.64-1.312-1.657-1.312-4.782t1.312-4.781q1.328-1.656 3.828-1.656.703 0 1.344.156.656.156 1.219.453v2.719q-.625-.579-1.219-.844-.594-.281-1.219-.281-1.344 0-2.031 1.078-.687 1.062-.687 3.156t.687 3.172q.688 1.062 2.031 1.062.625 0 1.219-.265.594-.281 1.219-.86z"/><text x="183.5" y="464.54" fill="#D9B8FF" font-family="Helvetica" font-size="17" textLength="113">aws_resource</text><path d="M150.5 478.549h153" style="stroke:#000d19;stroke-width:.5"/><text x="160.5" y="500.544" fill="#D9B8FF" font-family="sans-serif" font-size="14" font-weight="bold" textLength="26">arn</text><text x="186.5" y="500.544" fill="#D9B8FF" font-family="sans-serif" font-size="14" textLength="48">: string</text><rect width="227" height="310.758" x="113.5" y="7" fill="#3D176E" rx="2.5" ry="2.5" style="stroke:#000d19;stroke-width:.5"/><circle cx="182.25" cy="26.895" r="11" fill="#ADD1B2" style="stroke:#181818;stroke-width:1"/><path d="M185.219 32.535q-.578.297-1.219.438-.64.156-1.344.156-2.5 0-3.828-1.64-1.312-1.657-1.312-4.782t1.312-4.781q1.328-1.656 3.828-1.656.703 0 1.344.156.656.156 1.219.453v2.719q-.625-.578-1.219-.844-.594-.281-1.219-.281-1.344 0-2.031 1.078-.687 1.062-.687 3.156t.687 3.172q.688 1.062 2.031 1.062.625 0 1.219-.265.594-.281 1.219-.86z"/><text x="207.75" y="32.78" fill="#D9B8FF" font-family="Helvetica" font-size="17" textLength="71">resource</text><path d="M114.5 46.789h225" style="stroke:#000d19;stroke-width:.5"/><text x="124.5" y="68.784" fill="#D9B8FF" font-family="sans-serif" font-size="14" font-weight="bold" textLength="29">age</text><text x="153.5" y="68.784" fill="#D9B8FF" font-family="sans-serif" font-size="14" textLength="66">: duration</text><text x="124.5" y="95.081" fill="#D9B8FF" font-family="sans-serif" font-size="14" font-weight="bold" textLength="43">atime</text><text x="167.5" y="95.081" fill="#D9B8FF" font-family="sans-serif" font-size="14" textLength="70">: datetime</text><text x="124.5" y="121.378" fill="#D9B8FF" font-family="sans-serif" font-size="14" font-weight="bold" textLength="43">ctime</text><text x="167.5" y="121.378" fill="#D9B8FF" font-family="sans-serif" font-size="14" textLength="70">: datetime</text><text x="124.5" y="147.675" fill="#D9B8FF" font-family="sans-serif" font-size="14" font-weight="bold" textLength="14">id</text><text x="138.5" y="147.675" fill="#D9B8FF" font-family="sans-serif" font-size="14" textLength="48">: string</text><text x="124.5" y="173.972" fill="#D9B8FF" font-family="sans-serif" font-size="14" font-weight="bold" textLength="33">kind</text><text x="157.5" y="173.972" fill="#D9B8FF" font-family="sans-serif" font-size="14" textLength="48">: string</text><text x="124.5" y="200.269" fill="#D9B8FF" font-family="sans-serif" font-size="14" font-weight="bold" textLength="90">last_access</text><text x="214.5" y="200.269" fill="#D9B8FF" font-family="sans-serif" font-size="14" textLength="66">: duration</text><text x="124.5" y="226.565" fill="#D9B8FF" font-family="sans-serif" font-size="14" font-weight="bold" textLength="90">last_update</text><text x="214.5" y="226.565" fill="#D9B8FF" font-family="sans-serif" font-size="14" textLength="66">: duration</text><text x="124.5" y="252.862" fill="#D9B8FF" font-family="sans-serif" font-size="14" font-weight="bold" textLength="48">mtime</text><text x="172.5" y="252.862" fill="#D9B8FF" font-family="sans-serif" font-size="14" textLength="70">: datetime</text><text x="124.5" y="279.159" fill="#D9B8FF" font-family="sans-serif" font-size="14" font-weight="bold" textLength="43">name</text><text x="167.5" y="279.159" fill="#D9B8FF" font-family="sans-serif" font-size="14" textLength="48">: string</text><text x="124.5" y="305.456" fill="#D9B8FF" font-family="sans-serif" font-size="14" font-weight="bold" textLength="34">tags</text><text x="158.5" y="305.456" fill="#D9B8FF" font-family="sans-serif" font-size="14" textLength="171">: dictionary[string, string]</text><path fill="none" d="M227 531.09v102.53m0-120.53-6 18h12zm0-176.91v102.34m0-120.34-6 18h12z" style="stroke:#ffaf37;stroke-width:2"/></svg>
